X:1
T:Seanamhac Tube Station
L:1/8
Q:1/4=160
M:6/8
K:Fmaj
"Gsus2" G2 z z2 z |"Dm7" D2 z z2 z |"Bbmaj7" B2 z z2 z |"Csus2" C2 z z2 z |
"Gsus2" G2 z z2 z |"Dm7" D2 z z2 z |"Bbmaj7" B2 z z2 z |1"Csus2" c2 z z2 z :|2"C" z6 
|:"Bb" B3 BAG |"F" F3 FGA |"Bb" B2 z"F" F2 z |"C" C2 z z2 z |
|1 "Bb" B3 BAG |"F" F3 FGA |"Bb" B2 z"F" F2 z |"C" G2 z z2 z :|
|2 "Gm"!<(! G6 |"Gm" G6 |"Dm" d6!<)! |"F" F6 
|:"Gm" G3 G3 |"F" D3 z2 z |"C" z6 |"D" z6 |
"Gm" G z G z2 z |"F" A z A z2 z |"Bb" B3"F" c3 |"Gm" G6 :|

